static/fa/svgs/solid/person-walking-luggage.svg

<svg xmlns="http://www.w3.org/2000/svg" viewBox="0 0 512 512"><!--! Font Awesome Free 6.1.1 by @fontawesome - https://fontawesome.com License - https://fontawesome.com/license/free (Icons: CC BY 4.0, Fonts: SIL OFL 1.1, Code: MIT License) Copyright 2022 Fonticons, Inc.--><path d="M352 48c0-26.51 21.5-48 48-48s48 21.49 48 48-21.5 48-48 48-48-21.49-48-48zm-47.4 157.4c-15.2 6.8-27.2 19.2-33.4 34.7l-1.5 3.8c-6.6 16.4-25.2 24.4-41.6 17.8-16.4-6.6-24.4-25.2-17.8-41.6l1.5-3.8c12.4-30.9 36.4-55.8 66.9-69.4l11-4.9c20.8-9.2 42.4-14 66-14 44.6 0 84.8 26.8 101.9 67.9l14.5 36.8 22.2 10.7c15.8 7.9 22.2 27.1 14.3 42.9-7.9 15.8-27.1 22.2-42.9 14.3L439 287.3c-10.3-5.2-18.4-13.9-22.8-24.5l-9.6-23-19.3 65.5 49.5 54.1c5.4 5.9 9.3 13 11.2 20.8l23 92c4.3 17.2-6.1 34.6-23.2 38.8-17.2 4.3-34.6-6.1-39.7-23.2l-21.2-88.2-70.6-77.1c-14.8-16.1-21.2-38.6-14.7-59.7l16.9-63.5c-.9.4-1.9.8-2.8 1.2l-11.1 4.9zm-11.9 138.8 40.7 44.4-14.5 36.2c-2.4 6.1-6 11.6-10.6 16.1l-61.7 61.7c-12.5 12.5-32.7 12.5-45.2 0s-12.5-32.7 0-45.2l59.3-59.4 25-62.4c2.1 3 4.5 5.8 7 8.6zm-69.6-70.1c8.6 4.5 11.2 14.2 6.8 21l-43.8 76.7c-.7 2.7-1.8 5.4-3.2 7.9l-64 110.9c-8.9 15.3-28.46 20.5-43.76 11.7l-55.43-32C4.407 461.4-.837 441.9 7.999 426.6L71.1 315.7c9.74-15.3 29.3-20.5 44.6-12.6l54.4 32.3 32-56.3c4.5-6.8 14.2-9.4 21-5z"/></svg>

<svg xmlns="http://www.w3.org/2000/svg" viewBox="0 0 512 512"><!--! Font Awesome Free 6.1.1 by @fontawesome - https://fontawesome.com License - https://fontawesome.com/license/free (Icons: CC BY 4.0, Fonts: SIL OFL 1.1, Code: MIT License) Copyright 2022 Fonticons, Inc. --><path d="M352 48C352 21.49 373.5 0 400 0C426.5 0 448 21.49 448 48C448 74.51 426.5 96 400 96C373.5 96 352 74.51 352 48zM304.6 205.4C289.4 212.2 277.4 224.6 271.2 240.1L269.7 243.9C263.1 260.3 244.5 268.3 228.1 261.7C211.7 255.1 203.7 236.5 210.3 220.1L211.8 216.3C224.2 185.4 248.2 160.5 278.7 146.9L289.7 142C310.5 132.8 332.1 128 355.7 128C400.3 128 440.5 154.8 457.6 195.9L472.1 232.7L494.3 243.4C510.1 251.3 516.5 270.5 508.6 286.3C500.7 302.1 481.5 308.5 465.7 300.6L439 287.3C428.7 282.1 420.6 273.4 416.2 262.8L406.6 239.8L387.3 305.3L436.8 359.4C442.2 365.3 446.1 372.4 448 380.2L471 472.2C475.3 489.4 464.9 506.8 447.8 511C430.6 515.3 413.2 504.9 408.1 487.8L386.9 399.6L316.3 322.5C301.5 306.4 295.1 283.9 301.6 262.8L318.5 199.3C317.6 199.7 316.6 200.1 315.7 200.5L304.6 205.4zM292.7 344.2L333.4 388.6L318.9 424.8C316.5 430.9 312.9 436.4 308.3 440.9L246.6 502.6C234.1 515.1 213.9 515.1 201.4 502.6C188.9 490.1 188.9 469.9 201.4 457.4L260.7 398L285.7 335.6C287.8 338.6 290.2 341.4 292.7 344.2H292.7zM223.1 274.1C231.7 278.6 234.3 288.3 229.9 295.1L186.1 371.8C185.4 374.5 184.3 377.2 182.9 379.7L118.9 490.6C110 505.9 90.44 511.1 75.14 502.3L19.71 470.3C4.407 461.4-.8371 441.9 7.999 426.6L71.1 315.7C80.84 300.4 100.4 295.2 115.7 303.1L170.1 335.4L202.1 279.1C206.6 272.3 216.3 269.7 223.1 274.1H223.1z"/></svg>
